X:0093
M:C
L:1/8
Q:1/2=104
K:D
de|fedB ABde|fedB d3 A|B3 d ABde|Tf2e2 e2
de|fedB ABde|fedB d3 A|BdBF ABAE| F2D2 D2:|

